svg/arrow.svg

<?xml version="1.0" encoding="UTF-8"?>
<svg width="24px" height="24px" viewBox="0 0 24 24" version="1.1" xmlns="http://www.w3.org/2000/svg" xmlns:xlink="http://www.w3.org/1999/xlink">
    <!-- Generator: Sketch 49.2 (51160) - http://www.bohemiancoding.com/sketch -->
    <title>icon/arrow</title>
    <desc>Created with Sketch.</desc>
    <defs>
        <path d="M16.0905243,12.6666667 L11.6094757,17.1477153 L12.5761424,18.1143819 L18.3905243,12.3 L18.1477153,12.057191 L18.3905243,11.8143819 L12.5761424,6 L11.6094757,6.96666667 L15.9761424,11.3333333 L4.66666667,11.3333333 L4.66666667,12.6666667 L16.0905243,12.6666667 Z M16.6666667,12.0905243 L16.6666667,12.0238576 L16.7,12.057191 L16.6666667,12.0905243 Z M12,24 C5.372583,24 0,18.627417 0,12 C0,5.372583 5.372583,0 12,0 C18.627417,0 24,5.372583 24,12 C24,18.627417 18.627417,24 12,24 Z" id="path-1"></path>
    </defs>
    <g id="WEB" stroke="none" stroke-width="1" fill="none" fill-rule="evenodd">
        <g id="Home-1024" transform="translate(-682.000000, -426.000000)">
            <g id="destacados" transform="translate(480.000000, 172.000000)">
                <g id="destacado-infantil">
                    <g id="icon/arrow" transform="translate(202.000000, 254.000000)">
                        <mask id="mask-2" fill="white">
                            <use xlink:href="#path-1"></use>
                        </mask>
                        <use id="Combined-Shape" fill="#000000" fill-rule="nonzero" xlink:href="#path-1"></use>
                        <g id="UI/Color/Flat/Orange" mask="url(#mask-2)" fill="#FF6B47" fill-rule="evenodd">
                            <rect id="Base" x="0" y="0" width="24" height="24"></rect>
                        </g>
                    </g>
                </g>
            </g>
        </g>
    </g>
</svg>

<svg xmlns="http://www.w3.org/2000/svg" xmlns:xlink="http://www.w3.org/1999/xlink" width="24" height="24" viewBox="0 0 24 24"><defs><path id="a" d="M16.09 12.667l-4.48 4.48.966.967 5.815-5.814-.243-.243.243-.243L12.576 6l-.967.967 4.367 4.366H4.666v1.334h11.425zM12 24C5.373 24 0 18.627 0 12S5.373 0 12 0s12 5.373 12 12-5.373 12-12 12z"/></defs><use fill="#FF6B47" xlink:href="#a"/></svg>
